X: 142
T: No_76_In_the_Dark_I_Enter.krn
N: Derived from No_76_In_the_Dark_I_Enter.krn
%%abc-version 2.0
%%abcx-abcm2ps-target-version 5.9.1 (29 Sep 2008)
%%abc-creator hum2abc beta
%%abcx-conversion-date 2019/03/15 08:37:56
%%humdrum-veritas 3774760788
%%humdrum-veritas-data 1314730691
%%linebreak <none>
%%barnumbers 0
L: 1/16
M: 3/4
K: G clef=bass
G,3G, [I:setbarnb 1]| 
C3C C3A, C3A, ||  
[M:2/4]G,2G,G,G,4 | 
D3D D3B, | 
G,3G, (3A,2G,2G,2 ||  
[M:3/4]G,2G,G,G,8 ||  
[M:2/4]A,G,G,G, A,G,G,3/A,/ ||  
[M:3/4]!fermata!G,8G,4 ||  
[M:2/4]G,3G, G,3G, | 
(3G,2D,2D,2 G,2G,2- | 
G,8 |]  



